X:1
T:Doing His Will
T:Doing His Will
T:Lelia Naylor Morris
T:Lelia Naylor Morris, 1898
T:Public Domain Courtesy of the Cyber Hymnal™
T:Public Domain Courtesy of the Cyber Hymnal™
C:Lelia Naylor Morris
Z:Public Domain
Z:Courtesy of the Cyber Hymnal™
%%score ( 1 2 ) ( 3 4 )
L:1/8
Q:1/4=95
M:4/4
K:F
V:1 treble 
V:2 treble 
V:3 bass 
V:4 bass 
V:1
 [A,F]>[B,G] | [CA]2 [A,C]>[^G,=B,] [A,C]2 [A,F]>[CE] | [B,D]2 [B,G]>[B,G] [B,G]2 [B,G]>[DF] | %3
w: 1.~Just to|trust in the Lord, Just to|lean on His word, Just to|
w: 2.~When my|way dark- est seems, When are|blight- ed my dreams, Just to|
w: 3.~Then my|heart will be light, Then my|path will be bright, If I’ve|
 [CE]2 [EG]>[FA] [GB]2 [Ec]>[EB] | [FA]6 [FA]>[GB] | [Ac]2 [^G=B]>[Gd] [Ac]2 [Ac]>[A^c] | %6
w: feel I am His ev- ery|day; Just to|walk by His side With His|
w: feel that the Lord know- eth|best; Just to|yield to His will, Just to|
w: Je- sus for my dear- est|friend; Count- ing|all loss but gain, Such a|
 [Bd]2 [GB]>[FA] [EG]2 [FA]>[GB] | [Ac]2 [FA]F [DB]2 [CA]>[B,G] | [A,F]6 ||"^Refrain" [_EF]>[EF] | %10
w: Spir- it to guide, Just to|fol- low where He leads the|way.||
w: trust and be still, Just to|lean on His bo- som and|rest.|Just to|
w: friend to ob- tain, True and|faith- ful He’ll be to the|end.||
 [DB]2 [DB]>[DB] [DB]2 [DF]>[_DG] | [CA]6!pp! [FA]>[FA] | .[EG]2 [EG][Ec] [F=B][FG] ([=B,F][B,D]) | %13
w: |||
w: say what He wants me to|say, And be|still when He whis- pers to *|
w: |||
 C6!pp! !fermata![FA]>[FB] | [Fc]2 [F=B]>[Fd] [Fc]2 [F_B]>[FA] | %15
w: ||
w: me; Just to|go where He wants me to|
w: ||
 ([DG]3 [^FA] !fermata![GB]2) [=F=B]>[FB] | [Fc]2 F[FA] (AG)[EG][CE] | [CF]6 |] %18
w: |||
w: go, * * Just to|be what He wants * me to|be.|
w: |||
V:2
 x2 | x8 | x8 | x8 | x8 | x8 | x8 | x3 F x4 | x6 || x2 | x8 | x8 | x8 | (CG,G,A, B,2) x2 | x8 | %15
 x8 | x2 F E2 x3 | x6 |] %18
V:3
 z2 | F,,F,C,F, F,,F,C,F, | B,,G,D,G, B,,G,D,G, | C,B,E,B, C,CG,C | (F,CA,C F,2) z2 | %5
w: |~ ~ ~ ~ ~ ~ ~ ~|~ ~ ~ ~ ~ ~ ~ ~|~ ~ ~ ~ ~ ~ ~ ~|~ * * * *|
 F,CA,C F,CA,C | B,,B,G,B, C,CF,C | C,A,F,A, C,G,E,G, | (F,,F,C,A,, F,,2) || [F,A,]>[F,A,] | %10
w: ~ ~ ~ ~ ~ ~ ~ ~|~ ~ ~ ~ ~ ~ ~ ~|~ ~ ~ ~ ~ ~ ~ ~|~ * * * *|~ ~|
 [B,,F,]2 [B,,F,]>[B,,F,] [B,,F,]2 [B,,F,]>[B,,F,] | [F,,F,]2 F,>[F,A,] [F,C]2 [F,C]>[F,C] | %12
w: ~ ~ ~ ~ what He|wants me to say, ~ ~|
 .[G,C]2 [G,C][G,C] [G,,D][G,,D][G,,G,][G,,F,] | [C,E,][C,E,] (E,F,) !fermata![C,G,]2 F,>[F,G,] | %14
w: ~ ~ ~ ~ ~ when He|whis- pers to * me; ~ ~|
 [F,A,]2 [F,^G,]>[F,G,] [F,A,]2 [F,D]>[F,C] | B,2 B,[A,C] [G,D]2 [^G,_D]>[G,D] | %16
w: ~ ~ ~ ~ where He|wants me to go, * *|
 [A,C]2 [F,A,][F,C] (CB,)[C,B,][C,G,] | [F,A,]6 |] %18
w: ||
V:4
 x2 | x8 | x8 | x8 | x8 | x8 | x8 | x8 | x6 || x2 | x8 | x2 F,3/2 x9/2 | x8 | x2 C,2 x F,3/2 x3/2 | %14
 x8 | B,2 B, x5 | x4 C,2 x2 | x6 |] %18

